X:027
T:Allegro Moderato TS.027
M:C|
L:1/16
Q:1/4=110
S:Thomas Sands’ MS,1810,Lincolnshire
R:air
C:Prefixed as ‘No.15′ in MS
N:Bar 15 is problematical
O:England;Lincolnshire
Z:vmp.Ruairidh Greig, 2011
K:C
C4 E2G2 cccc eeee|gggg c’c’c’c’ g4>e4|(g2>f2) (d2>f2) (f2>e2) (c2>e2)|(e2>d2) (c2>d2) c2B2A2G2|
C2(DE) FGAB cdef gabc’|g2g2a2a2 g4^f4|(3g2d2g2 fedc B4″tr”A4|”rest added”z2″_p”(G2B2d2)z2 (G2c2e2)|
z2(G2B2d2) z2 (G2c2e2)|”_f”de^fg fedcB4″tr”A4|G2>G2 D2>D2 B,2>B,2 D2>D2|G,2G,G, B,2D2 G4z4:|
|:G4 B2>d2 f4 z4|f4 d2>B2 F4z4|EEEE “sic–“//E4 //c4 //c4 //e4 //e4 //g4 //g4|c’4>b4 a4 z4|
a4>g4 f4z4|f2>a2g2>f2 f2>e2d2>c2|g4G2>G2G4z4|{gefg} d4d4d8|
{fede} c4c4 “tr”c8|A2>B2c2A2 G2F2E2D2|”_f”C4E2G2 //c4 //e4|//g4 //c’4 g4>f4|
f2e2d2c2 e2d2c2B2|c2CC E2G2 c2CC E2G2|c4c4c4 z4:|]

